sites/default/files/images/our platform/headings/mobile/Step-2-mobile-heading.svg

<svg width="273" height="139" viewBox="0 0 273 139" fill="none" xmlns="http://www.w3.org/2000/svg">
<rect x="147" y="88" width="77" height="6" rx="3" fill="#A0C3FD"/>
<path d="M53.6855 64.6055C53.6855 74.4362 51.651 81.9557 47.582 87.1641C43.513 92.3724 37.556 94.9766 29.7109 94.9766C21.9635 94.9766 16.0391 92.4212 11.9375 87.3105C7.83594 82.1999 5.73633 74.8757 5.63867 65.3379V52.252C5.63867 42.3236 7.68945 34.7878 11.791 29.6445C15.9251 24.5013 21.8659 21.9297 29.6133 21.9297C37.3607 21.9297 43.2852 24.485 47.3867 29.5957C51.4883 34.6738 53.5879 41.9818 53.6855 51.5195V64.6055ZM39.5742 50.25C39.5742 44.3581 38.7604 40.0775 37.1328 37.4082C35.5378 34.7064 33.0312 33.3555 29.6133 33.3555C26.293 33.3555 23.8353 34.6413 22.2402 37.2129C20.6777 39.752 19.8477 43.7396 19.75 49.1758V66.4609C19.75 72.2552 20.5312 76.5684 22.0938 79.4004C23.6888 82.1999 26.2279 83.5996 29.7109 83.5996C33.1615 83.5996 35.6517 82.2487 37.1816 79.5469C38.7116 76.8451 39.5091 72.7109 39.5742 67.1445V50.25ZM111.986 94H63.2559V84.332L86.2539 59.8203C89.4115 56.3698 91.7389 53.3587 93.2363 50.7871C94.7663 48.2155 95.5312 45.7741 95.5312 43.4629C95.5312 40.3053 94.7337 37.8314 93.1387 36.041C91.5436 34.2181 89.265 33.3066 86.3027 33.3066C83.1126 33.3066 80.5898 34.4134 78.7344 36.627C76.9115 38.8079 76 41.6888 76 45.2695H61.8398C61.8398 40.9401 62.8652 36.985 64.916 33.4043C66.9993 29.8236 69.929 27.0241 73.7051 25.0059C77.4811 22.9551 81.7617 21.9297 86.5469 21.9297C93.8711 21.9297 99.5514 23.6875 103.588 27.2031C107.657 30.7188 109.691 35.6829 109.691 42.0957C109.691 45.6113 108.78 49.1921 106.957 52.8379C105.134 56.4837 102.009 60.7318 97.582 65.582L81.4199 82.623H111.986V94Z" fill="#2B2B2B"/>
<g filter="url(#filter0_d)">
<path d="M56.4023 67.1133C56.5846 68.4284 56.9427 69.4115 57.4766 70.0625C58.4531 71.2474 60.1263 71.8398 62.4961 71.8398C63.9154 71.8398 65.0677 71.6836 65.9531 71.3711C67.6328 70.7721 68.4727 69.6589 68.4727 68.0312C68.4727 67.0807 68.056 66.3451 67.2227 65.8242C66.3893 65.3164 65.0807 64.8672 63.2969 64.4766L60.25 63.793C57.2552 63.1159 55.1849 62.3802 54.0391 61.5859C52.099 60.2578 51.1289 58.181 51.1289 55.3555C51.1289 52.7773 52.0664 50.6354 53.9414 48.9297C55.8164 47.224 58.5703 46.3711 62.2031 46.3711C65.237 46.3711 67.8216 47.1784 69.957 48.793C72.1055 50.3945 73.2318 52.7253 73.3359 55.7852H67.5547C67.4505 54.0534 66.6953 52.8229 65.2891 52.0938C64.3516 51.612 63.1862 51.3711 61.793 51.3711C60.2435 51.3711 59.0065 51.6836 58.082 52.3086C57.1576 52.9336 56.6953 53.806 56.6953 54.9258C56.6953 55.9544 57.151 56.7227 58.0625 57.2305C58.6484 57.569 59.8984 57.9661 61.8125 58.4219L66.7734 59.6133C68.9479 60.1341 70.5885 60.8307 71.6953 61.7031C73.4141 63.0573 74.2734 65.0169 74.2734 67.582C74.2734 70.2122 73.2643 72.3997 71.2461 74.1445C69.2409 75.8763 66.4023 76.7422 62.7305 76.7422C58.9805 76.7422 56.0312 75.8893 53.8828 74.1836C51.7344 72.4648 50.6602 70.1081 50.6602 67.1133H56.4023ZM76.0898 58.8711V54.9062H79.0586V48.9688H84.5664V54.9062H88.0234V58.8711H84.5664V70.1211C84.5664 70.9935 84.6771 71.5404 84.8984 71.7617C85.1198 71.9701 85.7969 72.0742 86.9297 72.0742C87.099 72.0742 87.2747 72.0742 87.457 72.0742C87.6523 72.0612 87.8411 72.0482 88.0234 72.0352V76.1953L85.3867 76.293C82.7565 76.3841 80.9596 75.9284 79.9961 74.9258C79.3711 74.2878 79.0586 73.3047 79.0586 71.9766V58.8711H76.0898ZM99.9961 58.7344C98.707 58.7344 97.7044 59.138 96.9883 59.9453C96.2852 60.7526 95.8424 61.8464 95.6602 63.2266H104.312C104.221 61.7552 103.772 60.6419 102.965 59.8867C102.171 59.1185 101.181 58.7344 99.9961 58.7344ZM99.9961 54.1445C101.767 54.1445 103.362 54.4766 104.781 55.1406C106.201 55.8047 107.372 56.8529 108.297 58.2852C109.13 59.5482 109.671 61.013 109.918 62.6797C110.061 63.6562 110.12 65.0625 110.094 66.8984H95.5234C95.6016 69.0339 96.2721 70.5312 97.5352 71.3906C98.3034 71.9245 99.2279 72.1914 100.309 72.1914C101.454 72.1914 102.385 71.8659 103.102 71.2148C103.492 70.8633 103.837 70.375 104.137 69.75H109.82C109.677 71.013 109.02 72.2956 107.848 73.5977C106.025 75.668 103.473 76.7031 100.191 76.7031C97.4831 76.7031 95.0938 75.8307 93.0234 74.0859C90.9531 72.3411 89.918 69.5026 89.918 65.5703C89.918 61.8854 90.849 59.0599 92.7109 57.0938C94.5859 55.1276 97.0143 54.1445 99.9961 54.1445ZM128.531 65.3555C128.531 63.7148 128.154 62.263 127.398 61C126.656 59.737 125.445 59.1055 123.766 59.1055C121.747 59.1055 120.361 60.0625 119.605 61.9766C119.215 62.9922 119.02 64.2812 119.02 65.8438C119.02 68.3177 119.677 70.056 120.992 71.0586C121.773 71.6445 122.698 71.9375 123.766 71.9375C125.315 71.9375 126.493 71.3385 127.301 70.1406C128.121 68.9427 128.531 67.3477 128.531 65.3555ZM125.367 54.2422C127.854 54.2422 129.957 55.1602 131.676 56.9961C133.408 58.832 134.273 61.5273 134.273 65.082C134.273 68.832 133.427 71.6901 131.734 73.6562C130.055 75.6224 127.887 76.6055 125.23 76.6055C123.538 76.6055 122.132 76.1823 121.012 75.3359C120.4 74.8672 119.801 74.1836 119.215 73.2852V84.3789H113.707V54.7109H119.039V57.8555C119.638 56.931 120.276 56.2018 120.953 55.668C122.19 54.7174 123.661 54.2422 125.367 54.2422ZM170.816 47.2109V52.3086H162.203V76H156.148V52.3086H147.496V47.2109H170.816ZM180.973 54.7109H186.617L189.859 70.043L193.18 54.7109H198.98L192.809 76H187.086L183.746 60.4922L180.367 76H174.586L168.609 54.7109H174.586L177.906 69.9844L180.973 54.7109ZM211.617 72.0742C213.245 72.0742 214.495 71.4948 215.367 70.3359C216.24 69.1771 216.676 67.5299 216.676 65.3945C216.676 63.2591 216.24 61.6185 215.367 60.4727C214.495 59.3138 213.245 58.7344 211.617 58.7344C209.99 58.7344 208.733 59.3138 207.848 60.4727C206.975 61.6185 206.539 63.2591 206.539 65.3945C206.539 67.5299 206.975 69.1771 207.848 70.3359C208.733 71.4948 209.99 72.0742 211.617 72.0742ZM222.516 65.3945C222.516 68.5195 221.617 71.1953 219.82 73.4219C218.023 75.6354 215.296 76.7422 211.637 76.7422C207.978 76.7422 205.25 75.6354 203.453 73.4219C201.656 71.1953 200.758 68.5195 200.758 65.3945C200.758 62.3216 201.656 59.6589 203.453 57.4062C205.25 55.1536 207.978 54.0273 211.637 54.0273C215.296 54.0273 218.023 55.1536 219.82 57.4062C221.617 59.6589 222.516 62.3216 222.516 65.3945Z" fill="#59C9FF"/>
</g>
<defs>
<filter id="filter0_d" x="0.660156" y="0.371094" width="271.855" height="138.008" filterUnits="userSpaceOnUse" color-interpolation-filters="sRGB">
<feFlood flood-opacity="0" result="BackgroundImageFix"/>
<feColorMatrix in="SourceAlpha" type="matrix" values="0 0 0 0 0 0 0 0 0 0 0 0 0 0 0 0 0 0 127 0"/>
<feOffset dy="4"/>
<feGaussianBlur stdDeviation="25"/>
<feColorMatrix type="matrix" values="0 0 0 0 1 0 0 0 0 1 0 0 0 0 1 0 0 0 0.25 0"/>
<feBlend mode="normal" in2="BackgroundImageFix" result="effect1_dropShadow"/>
<feBlend mode="normal" in="SourceGraphic" in2="effect1_dropShadow" result="shape"/>
</filter>
</defs>
</svg>

<svg xmlns="http://www.w3.org/2000/svg" width="273" height="139" fill="none"><rect width="77" height="6" x="147" y="88" fill="#A0C3FD" rx="3"/><path fill="#2B2B2B" d="M53.69 64.6c0 9.84-2.04 17.36-6.1 22.56-4.08 5.21-10.03 7.82-17.88 7.82-7.75 0-13.67-2.56-17.77-7.67-4.1-5.11-6.2-12.43-6.3-21.97V52.25c0-9.93 2.05-17.46 6.15-22.6 4.14-5.15 10.08-7.72 17.82-7.72 7.75 0 13.68 2.55 17.78 7.67 4.1 5.07 6.2 12.38 6.3 21.92v13.09zM39.57 50.26c0-5.9-.81-10.17-2.44-12.84-1.6-2.7-4.1-4.05-7.52-4.05-3.32 0-5.77 1.28-7.37 3.85-1.56 2.54-2.4 6.53-2.49 11.97v17.28c0 5.8.78 10.1 2.34 12.94 1.6 2.8 4.14 4.2 7.62 4.2 3.45 0 5.94-1.35 7.47-4.05 1.53-2.7 2.33-6.84 2.4-12.4v-16.9zM112 94H63.26v-9.67l23-24.51c3.15-3.45 5.48-6.46 6.98-9.03 1.53-2.57 2.3-5.02 2.3-7.33 0-3.15-.8-5.63-2.4-7.42-1.6-1.82-3.88-2.73-6.84-2.73-3.19 0-5.71 1.1-7.57 3.32C76.91 38.8 76 41.69 76 45.27H61.84c0-4.33 1.03-8.29 3.08-11.87A21.85 21.85 0 0173.7 25a26.47 26.47 0 0112.84-3.07c7.32 0 13 1.76 17.04 5.27 4.07 3.52 6.1 8.48 6.1 14.9 0 3.51-.91 7.1-2.73 10.74-1.83 3.64-4.95 7.9-9.38 12.74L81.42 82.62h30.57V94z"/><g filter="url(#filter0_d)"><path fill="#59C9FF" d="M56.4 67.11c.18 1.32.54 2.3 1.08 2.95.97 1.19 2.65 1.78 5.02 1.78 1.42 0 2.57-.16 3.45-.47 1.68-.6 2.52-1.71 2.52-3.34 0-.95-.41-1.68-1.25-2.2-.83-.51-2.14-.96-3.92-1.35l-3.05-.69c-3-.67-5.07-1.41-6.21-2.2-1.94-1.33-2.91-3.4-2.91-6.23 0-2.58.94-4.72 2.81-6.43 1.88-1.7 4.63-2.56 8.26-2.56 3.04 0 5.62.8 7.76 2.42 2.15 1.6 3.27 3.94 3.38 7h-5.79c-.1-1.74-.85-2.97-2.26-3.7a7.6 7.6 0 00-3.5-.72c-1.55 0-2.78.31-3.7.94a2.99 2.99 0 00-1.4 2.62c0 1.02.46 1.8 1.37 2.3.59.34 1.84.74 3.75 1.2l4.96 1.18c2.18.52 3.82 1.22 4.93 2.1 1.71 1.35 2.57 3.3 2.57 5.87 0 2.63-1 4.82-3.02 6.56-2 1.74-4.85 2.6-8.52 2.6-3.75 0-6.7-.85-8.85-2.56-2.15-1.72-3.22-4.07-3.22-7.07h5.74zm19.69-8.24v-3.96h2.97v-5.94h5.5v5.94h3.46v3.96h-3.45v11.25c0 .87.1 1.42.33 1.64.22.21.9.31 2.03.31.17 0 .34 0 .53 0 .2 0 .38-.02.56-.03v4.16l-2.63.1c-2.63.08-4.43-.37-5.4-1.37-.62-.64-.93-1.63-.93-2.95v-13.1h-2.97zm23.9-.14c-1.28 0-2.29.4-3 1.22-.7.8-1.15 1.9-1.33 3.28h8.65a4.78 4.78 0 00-1.34-3.34 4.1 4.1 0 00-2.97-1.16zm0-4.59c1.78 0 3.37.34 4.8 1a8.38 8.38 0 013.5 3.15 10.73 10.73 0 011.63 4.39c.14.98.2 2.38.17 4.22H95.52c.08 2.13.75 3.63 2.02 4.5.76.52 1.69.8 2.77.8a4 4 0 002.8-.99c.38-.35.73-.83 1.03-1.46h5.68a7.06 7.06 0 01-1.97 3.85c-1.82 2.07-4.38 3.1-7.66 3.1-2.7 0-5.1-.87-7.17-2.61-2.07-1.75-3.1-4.59-3.1-8.52 0-3.68.93-6.51 2.8-8.48a9.61 9.61 0 017.28-2.95zm28.54 11.22c0-1.65-.38-3.1-1.13-4.36-.74-1.26-1.96-1.9-3.63-1.9-2.02 0-3.4.96-4.16 2.88a10.9 10.9 0 00-.59 3.86c0 2.48.66 4.22 1.97 5.22.78.58 1.7.88 2.78.88a4 4 0 003.53-1.8c.82-1.2 1.23-2.8 1.23-4.78zm-3.16-11.12c2.48 0 4.59.92 6.3 2.76 1.74 1.83 2.6 4.53 2.6 8.08 0 3.75-.84 6.61-2.54 8.58a8.16 8.16 0 01-6.5 2.95 6.8 6.8 0 01-4.22-1.27 8.19 8.19 0 01-1.8-2.05v11.09h-5.5V54.7h5.33v3.15a8.94 8.94 0 011.91-2.2 7.03 7.03 0 014.42-1.42zm45.45-7.03v5.1h-8.62V76h-6.05V52.3h-8.65v-5.09h23.32zm10.15 7.5h5.65l3.24 15.33 3.32-15.33h5.8L192.81 76h-5.72l-3.34-15.5-3.38 15.5h-5.78l-5.98-21.29h5.98l3.32 15.27 3.06-15.27zm30.65 17.36c1.63 0 2.88-.58 3.75-1.73.87-1.16 1.3-2.81 1.3-4.95 0-2.13-.43-3.77-1.3-4.92a4.41 4.41 0 00-3.75-1.74c-1.63 0-2.89.58-3.77 1.74-.88 1.15-1.31 2.79-1.31 4.92 0 2.14.44 3.79 1.3 4.95a4.46 4.46 0 003.78 1.73zm10.9-6.68c0 3.13-.9 5.8-2.7 8.03-1.8 2.22-4.52 3.32-8.18 3.32s-6.39-1.1-8.19-3.32c-1.8-2.22-2.7-4.9-2.7-8.03 0-3.07.9-5.73 2.7-7.98 1.8-2.26 4.53-3.38 8.19-3.38 3.66 0 6.38 1.12 8.18 3.38 1.8 2.25 2.7 4.91 2.7 7.98z"/></g><defs><filter id="filter0_d" width="271.855" height="138.008" x=".66" y=".371" color-interpolation-filters="sRGB" filterUnits="userSpaceOnUse"><feFlood flood-opacity="0" result="BackgroundImageFix"/><feColorMatrix in="SourceAlpha" values="0 0 0 0 0 0 0 0 0 0 0 0 0 0 0 0 0 0 127 0"/><feOffset dy="4"/><feGaussianBlur stdDeviation="25"/><feColorMatrix values="0 0 0 0 1 0 0 0 0 1 0 0 0 0 1 0 0 0 0.25 0"/><feBlend in2="BackgroundImageFix" result="effect1_dropShadow"/><feBlend in="SourceGraphic" in2="effect1_dropShadow" result="shape"/></filter></defs></svg>
